X:1
T:Cumberland reel
C:Trad. Ecosse, abc file by Bernard Loffet
L:1/8
Q:340
M:6/8
K:C
z4zG|:[e2C,2][dC,][c2C,2][BC,]|[c2C,2][AG,][G2C,2][EG,]|[FG,]E[FG,][DG,]E[FG,]|[E2C,2][FG,][G2C,2][GC,]|[AF,]F[AF,][cF,]B[AF,]|[GC,]E[GC,][c2C,2][cC,]| \
[BG,]c[dG,][GG,]A[BG,]|[c2C,2]C,[c2C,2][GC,]:|[eC,]e[eC,][e2C,2][GC,]|[eC,]e[eC,][e2C,2][GC,]|[eC,]e[eC,][f2F,2][eF,]|[d2G,2]G,[d2G,2][GG,]|[dG,]d[dG,][d2G,2][GG,]| \
[dG,]d[dG,][d2G,2][GG,]|[d2D,2][eD,][d2D,2][cD,]|[B2G,2][AD,][GG,]A[BG,]|[cC,]d[cC,][BC,]A[GC,]|[A2F,2][BF,][c2C,2][GC,]|[cC,]d[cC,][BC,]A[GC,]|[A2F,2][BF,][c2C,2][dC,]| \
[dD,]e[dD,][dG,]B[GG,]|[dD,]e[dD,][dD,]e[fD,]|[g2G,2][GG,][GG,]A[BG,]|[c2C,2]C,C,2C,| \
Z:Created with TablEdit http://www.tabledit.com/
